svg/700/rounded/density_medium-fill.svg

<svg xmlns="http://www.w3.org/2000/svg" width="48" height="48" viewBox="0 -960 960 960"><path d="M138-95q-17.625 0-30.312-12.763Q95-120.526 95-138.263 95-156 107.688-169q12.687-13 30.312-13h684q18.05 0 31.025 12.965Q866-156.07 866-138.035T853.025-107.5Q840.05-95 822-95H138Zm0-342q-17.625 0-30.312-12.763Q95-462.526 95-480.263 95-498 107.688-511q12.687-13 30.312-13h684q18.05 0 31.025 12.965Q866-498.07 866-480.035T853.025-449.5Q840.05-437 822-437H138Zm0-342q-17.625 0-30.312-12.763Q95-804.526 95-822.263 95-840 107.688-853q12.687-13 30.312-13h684q18.05 0 31.025 12.965Q866-840.07 866-822.035T853.025-791.5Q840.05-779 822-779H138Z"/></svg>

<svg xmlns="http://www.w3.org/2000/svg" width="48" height="48" viewBox="0 -960 960 960"><path d="M138-95q-17.62 0-30.31-12.76Q95-120.53 95-138.26 95-156 107.69-169T138-182h684q18.05 0 31.03 12.96 12.97 12.97 12.97 31 0 18.04-12.97 30.54Q840.05-95 822-95H138Zm0-342q-17.62 0-30.31-12.76Q95-462.53 95-480.26 95-498 107.69-511T138-524h684q18.05 0 31.03 12.96 12.97 12.97 12.97 31 0 18.04-12.97 30.54Q840.05-437 822-437H138Zm0-342q-17.62 0-30.31-12.76Q95-804.53 95-822.26 95-840 107.69-853T138-866h684q18.05 0 31.03 12.96 12.97 12.97 12.97 31 0 18.04-12.97 30.54Q840.05-779 822-779H138Z"/></svg>
